kommuner/4631.svg

<svg width="400" height="483" viewBox="0 0 400 483" fill="none" xmlns="http://www.w3.org/2000/svg">
<g clip-path="url(#clip0)">
<path fill-rule="evenodd" clip-rule="evenodd" d="M394.888 116.848C265.398 68.904 136.199 60.4083 8.34353 133.523C2.88218 89.0574 -0.759023 44.4143 0.134863 0.519287L399.964 0.822586C400.321 73.522 397.946 96.9799 394.888 116.848ZM10.6287 152.146C9.72501 146.128 9.51244 144.713 8.90837 137.945L29.4846 127.471L29.4076 149.705L11.4524 157.673C11.1235 155.44 10.8545 153.649 10.6287 152.146ZM357.861 148.036L357.707 113.357L394.284 125.195C393.042 137.589 391.57 149.906 389.423 161.998L357.861 148.036ZM305.232 129.824L304.617 100.609L349.793 112.067L349.41 145.607L305.232 129.824ZM251.065 91.0474L250.835 115.633L296.395 127.623L296.165 98.7875L251.065 91.0474ZM196.9 110.929L197.13 88.8468C209.777 88.3439 221.088 89.1757 232.4 90.0076C235.919 90.2664 239.439 90.5253 242.999 90.7439L243.076 114.723C239.574 114.362 236.2 113.966 232.826 113.569C222.182 112.319 211.539 111.069 196.9 110.929ZM142.043 113.509L142.119 93.0963C157.836 90.8973 173.601 89.0835 189.6 89.1503L189.37 111.156C178.009 110.803 163.224 111.917 148.439 113.031C146.303 113.191 144.168 113.352 142.043 113.509ZM89.1374 104.112L89.8738 125.195C94.265 124.125 98.51 123.007 102.755 121.889C112.842 119.232 122.928 116.575 134.974 114.571L134.82 93.6167C123.184 94.6767 113.527 97.4332 103.87 100.19C99.0419 101.568 94.2134 102.946 89.1374 104.112ZM36.2558 124.903L36.0386 145.937L82.3257 127.8L81.9998 106.552L36.2558 124.903ZM181.599 241.519L183.742 159.263C182.077 159.066 180.413 158.868 178.749 158.67C133.462 153.274 88.1757 147.878 14.1387 175.228C32.9523 284.006 83.7226 409.919 200.273 482.51C299.961 419.764 344.468 330.764 369.417 249.122C315.871 213.357 265.92 185.014 196.906 163.52L198.896 249.273L181.599 241.519ZM203.814 248.203L201.974 174.88L216.478 179.503L219.725 242.613L203.814 248.203ZM103.224 350.755C95.5622 341.474 88.8165 331.119 83.7453 317.644C201.356 334.502 269.426 323.384 335.236 305.832C281.304 338.213 172.184 351.992 103.224 350.755ZM81.0996 310.708L77.3112 298.237C194.922 315.095 289.964 304.393 337.157 297.162C316.779 304.815 236.65 333.662 81.0996 310.708ZM75.4478 289.317L72.4248 276.049C155.162 287.275 274.492 293.493 347.446 287.23C326.334 299.782 172.372 306.359 75.4478 289.317Z" fill="#0094DA"/>
</g>
<defs>
<clipPath id="clip0">
<rect y="0.519287" width="400" height="481.991" fill="white"/>
</clipPath>
</defs>
</svg>

<svg width="400" height="483" viewBox="0 0 400 483" fill="none" xmlns="http://www.w3.org/2000/svg">
<g clip-path="url(#clip0)">
<path fill="#fff" d="M0 .52h200V483S74 353 14 175.5C1.5 101.5 0 .52 0 .52Z"/>
    <path fill="#fff" d="M400 .52H200V483s126-101 169.5-233.5C403.479 146 400 .52 400 .52Z"/>
    <path fill="#0094DA" fill-rule="evenodd" d="M394.888 116.848c-129.49-47.944-258.689-56.44-386.544 16.675C2.882 89.057-.76 44.414.134.519l399.83.304c.357 72.699-2.018 96.157-5.076 116.025Zm-384.26 35.298c-.903-6.018-1.116-7.433-1.72-14.201l20.577-10.474-.077 22.234-17.956 7.968c-.329-2.233-.598-4.024-.823-5.527Zm347.233-4.11-.154-34.679 36.577 11.838c-1.242 12.394-2.714 24.711-4.861 36.803l-31.562-13.962Zm-52.629-18.212-.615-29.215 45.176 11.458-.383 33.54-44.178-15.783Zm-54.167-38.777-.23 24.586 45.56 11.99-.23-28.836-45.1-7.74ZM196.9 110.93l.23-22.082c12.647-.503 23.958.329 35.27 1.16 3.519.26 7.039.518 10.599.737l.077 23.979a707.91 707.91 0 0 1-10.25-1.154c-10.644-1.25-21.287-2.5-35.926-2.64Zm-54.857 2.58.076-20.413c15.717-2.199 31.482-4.013 47.481-3.946l-.23 22.006c-11.361-.353-26.146.761-40.931 1.875-2.136.16-4.271.321-6.396.478Zm-52.906-9.397.737 21.083c4.391-1.07 8.636-2.188 12.881-3.306 10.087-2.657 20.173-5.314 32.219-7.318l-.154-20.954c-11.636 1.06-21.293 3.816-30.95 6.573-4.828 1.378-9.657 2.756-14.733 3.922Zm-52.881 20.791-.217 21.034L82.326 127.8 82 106.552l-45.744 18.351Zm145.343 116.616 2.143-82.256-4.993-.593c-45.287-5.396-90.573-10.792-164.61 16.558C32.952 284.006 83.723 409.919 200.273 482.51c99.688-62.746 144.195-151.746 169.144-233.388-53.546-35.765-103.497-64.108-172.511-85.602l1.99 85.753-17.297-7.754Zm22.215 6.684-1.84-73.323 14.504 4.623 3.247 63.11-15.911 5.59Zm-100.59 102.552c-7.662-9.281-14.407-19.636-19.479-33.111 117.611 16.858 185.681 5.74 251.491-11.812-53.932 32.381-163.052 46.16-232.012 44.923ZM81.1 310.708l-3.789-12.471c117.611 16.858 212.653 6.156 259.846-1.075-20.378 7.653-100.507 36.5-256.057 13.546Zm-5.652-21.391-3.023-13.268c82.737 11.226 202.067 17.444 275.021 11.181-21.112 12.552-175.074 19.129-271.998 2.087Z" clip-rule="evenodd"/>
</g>
<defs>
<clipPath id="clip0">
<path fill="#fff" d="M0 .52h400v481.99H0z"/>
</clipPath>
</defs>
</svg>
